Newaita/actions/24/gnumeric-cells-merge.svg

<svg height="24" viewBox="0 0 24 24" width="24" xmlns="http://www.w3.org/2000/svg"><g fill="#424242"><path d="m3.96875 2.171875c-1.097656 0-1.984375.886719-1.984375 1.984375v15.875c0 1.101562.886719 1.988281 1.984375 1.988281h15.875c1.101562 0 1.988281-.886719 1.988281-1.988281v-2.976562h-1.988281v1.984374c0 .550782-.441406.992188-.992188.992188h-13.890624c-.550782 0-.992188-.441406-.992188-.992188v-13.890624c0-.550782.441406-.992188.992188-.992188h13.890624c.550782 0 .992188.441406.992188.992188v1.984374h1.988281v-2.976562c0-1.097656-.886719-1.984375-1.988281-1.984375zm0 0"/><path d="m8.433594 3.164062h.992187v17.863282h-.992187zm0 0"/><path d="m14.386719 17.550781h.992187v3.476563h-.992187zm0 0"/><path d="m8.929688 8.621094v.992187h-5.953126v-.992187zm0 0"/><path d="m8.929688 14.574219v.992187h-5.953126v-.992187zm0 0"/></g><path d="m8.433594 6.140625v11.90625h13.398437v-11.90625zm.992187.992187h11.414063v9.921876h-11.414063zm0 0" fill="#f44336"/><path d="m14.386719 3.164062h.992187v3.472657h-.992187zm0 0" fill="#424242"/></svg>

<svg xmlns="http://www.w3.org/2000/svg" xmlns:xlink="http://www.w3.org/1999/xlink" width="24px" height="24px" viewBox="0 0 24 24" version="1.1">
<g id="surface1">
     <defs>
  <style id="current-color-scheme" type="text/css">
   .ColorScheme-Text { color:#424242; } .ColorScheme-Highlight { color:#eeeeee; }
  </style>
 </defs>
<path style="fill:currentColor" class="ColorScheme-Text" d="M 3.96875 2.171875 C 2.871094 2.171875 1.984375 3.058594 1.984375 4.15625 L 1.984375 20.03125 C 1.984375 21.132812 2.871094 22.019531 3.96875 22.019531 L 19.84375 22.019531 C 20.945312 22.019531 21.832031 21.132812 21.832031 20.03125 L 21.832031 17.054688 L 19.84375 17.054688 L 19.84375 19.039062 C 19.84375 19.589844 19.402344 20.03125 18.851562 20.03125 L 4.960938 20.03125 C 4.410156 20.03125 3.96875 19.589844 3.96875 19.039062 L 3.96875 5.148438 C 3.96875 4.597656 4.410156 4.15625 4.960938 4.15625 L 18.851562 4.15625 C 19.402344 4.15625 19.84375 4.597656 19.84375 5.148438 L 19.84375 7.132812 L 21.832031 7.132812 L 21.832031 4.15625 C 21.832031 3.058594 20.945312 2.171875 19.84375 2.171875 Z M 3.96875 2.171875 "/>
     <defs>
  <style id="current-color-scheme" type="text/css">
   .ColorScheme-Text { color:#424242; } .ColorScheme-Highlight { color:#eeeeee; }
  </style>
 </defs>
<path style="fill:currentColor" class="ColorScheme-Text" d="M 8.433594 3.164062 L 9.425781 3.164062 L 9.425781 21.027344 L 8.433594 21.027344 Z M 8.433594 3.164062 "/>
     <defs>
  <style id="current-color-scheme" type="text/css">
   .ColorScheme-Text { color:#424242; } .ColorScheme-Highlight { color:#eeeeee; }
  </style>
 </defs>
<path style="fill:currentColor" class="ColorScheme-Text" d="M 14.386719 17.550781 L 15.378906 17.550781 L 15.378906 21.027344 L 14.386719 21.027344 Z M 14.386719 17.550781 "/>
     <defs>
  <style id="current-color-scheme" type="text/css">
   .ColorScheme-Text { color:#424242; } .ColorScheme-Highlight { color:#eeeeee; }
  </style>
 </defs>
<path style="fill:currentColor" class="ColorScheme-Text" d="M 8.929688 8.621094 L 8.929688 9.613281 L 2.976562 9.613281 L 2.976562 8.621094 Z M 8.929688 8.621094 "/>
     <defs>
  <style id="current-color-scheme" type="text/css">
   .ColorScheme-Text { color:#424242; } .ColorScheme-Highlight { color:#eeeeee; }
  </style>
 </defs>
<path style="fill:currentColor" class="ColorScheme-Text" d="M 8.929688 14.574219 L 8.929688 15.566406 L 2.976562 15.566406 L 2.976562 14.574219 Z M 8.929688 14.574219 "/>
<path style=" stroke:none;fill-rule:nonzero;fill:rgb(95.686275%,26.274511%,21.176471%);fill-opacity:1;" d="M 8.433594 6.140625 L 8.433594 18.046875 L 21.832031 18.046875 L 21.832031 6.140625 Z M 9.425781 7.132812 L 20.839844 7.132812 L 20.839844 17.054688 L 9.425781 17.054688 Z M 9.425781 7.132812 "/>
     <defs>
  <style id="current-color-scheme" type="text/css">
   .ColorScheme-Text { color:#424242; } .ColorScheme-Highlight { color:#eeeeee; }
  </style>
 </defs>
<path style="fill:currentColor" class="ColorScheme-Text" d="M 14.386719 3.164062 L 15.378906 3.164062 L 15.378906 6.636719 L 14.386719 6.636719 Z M 14.386719 3.164062 "/>
</g>
</svg>
